X:1
T:9 Lieder und Gesänge, Op.32
T:Nicht mehr zu dir zu gehen
T:2. Nicht mehr zu dir zu gehen
T:Johannes Brahms
T:9 Lieder und Gesänge, Op.32
T:Georg Friedrich Daumer
T:Creative Commons copyright waiver (CC0 1.0 Universal) 
T:Creative Commons copyright waiver (CC0 1.0 Universal) 
T:Creative Commons copyright waiver (CC0 1.0 Universal) 
C:Johannes Brahms
Z:Georg Friedrich Daumer (from a Moldavian folk song)
Z:Creative Commons copyright waiver (CC0 1.0 Universal)
Z:
%%score 1 { ( 2 4 5 ) | ( 3 6 7 ) }
L:1/8
Q:1/4=80
M:3/2
K:F
V:1 treble nm="Singstimme\nVoice"
V:2 treble nm="Pianoforte"
V:4 treble 
V:5 treble 
V:3 bass 
V:6 bass 
V:7 bass 
V:1
"^Langsam\n" z2!mp! D2 E2 F2 G2 B2 | D2 ^C2 z2 C2 D2 C2 | z2 D2 z2 D2 F2 E2 | z2 F2 G2 A2 B2 d2 | %4
w: Nicht mehr zu dir zu|ge- hen, be- schloss ich|und be- schwor ich,|und ge- he je- den|
 G2 ^F2 z2 F2 G2 A2 | (G2 ^F2) z2 F2 A2 G2 | (G2 =F2) z2 F2 G2!>(! F2 | (F2 E2) z4 z2 F2 | %8
w: A- bend, denn je- de|Kraft, * denn je- de|Kraft, * und je- den|Halt * ver-|
 E2!>)! D2!mp! z4 z4 | z12 | z2"^espress. animato"[Q:1/2=60] c2 B2 A2 G2 F2 | F2 E2 z2 F2 A2 C2 | %12
w: lor ich.||Ich möch- te nicht mehr|le- ben, möcht Au- gen-|
 (F2 E2) G2 F2 A2 D2 | F6 E2 z2 (D2 | d3) d (_e2 d2) (c2 B2) | A4 A2 c2 =B2 d2 | c2 A2 A6 G2 | %17
w: blicks, * Au- gen- blicks ver-|der- ben, und|möch- te doch _ auch _|le- ben für dich, mit|dir, und nim- mer,|
 z4 G6 F2 |!>(! F8!>)! E2 z2 | z12 | z12[Q:1/2=56] | z12 | %22
w: nim- mer|ster- ben.||||
[Q:1/4=80]"^Tempo I"!mp! z2!<(! D2 E2 F2 G2!<)!!mf! B2 | D2 ^C2 z2 C2 E3 D | D2 z2 z2 D2 F2 E2 | %25
w: Ach re- de, sprich ein|Wort nur, ein ein- zi-|ges, ein kla- res;|
 z2!mf! F2 G2 A2 B2 d2 | G2 ^F2 z2 F2 G2 A2 | (G2 ^F2) z2 F2 A2 G2 |"^dim." (G2 =F2) z2 F2 G2 F2 | %29
w: gib Le- ben o- der|Tod mir, nur dein Ge-|fühl, _ nur dein Ge-|fühl _ ent- hül- le|
 (F2 E2) z4 z2 F2 | E2!p! D2 z4 z4 | z12 | z12 | z12 | z12 | !fermata!z12 |] %36
w: mir, * dein|wah- res!||||||
V:2
 z12 |[K:bass] z2!<(! (E,2!<)!!>(! F,2!>)! E,2) z2 E,2 | z2!<(! A,4!<)! A,2 z2 A,2 | %3
 z2!<(! A,2 z2 D2 z2!<)! [G,D]2 | z2!<(! =C4!<)! C2 z2 D2 | z2!<(! _E4!<)! E2 z2 D2 | %6
 z2!<(! D4!<)! D2 z2 D2 | z2!>(!!<(! [B,D]4!<)! [B,D]2 z2!>)! [A,^C]2 | %8
 z2!<(! [A,D]2 z2!<)!!>(! [A,D]2 z2!>)! [D,D]2 | z2!<(! [A,D]2 z2!<)!!>(! [A,D]2 z2!>)! [_D,_D]2 | %10
 (3z2"_animato" (C,2 F,2 (3[A,C]2!<(! C,2 F,2 (3C2 F,2!<)! A,2) | %11
[K:treble]!p!!<(! (3(F2 x2 E2 (3G2!<)! x2!>(! F2 (3A2 x2!>)! C2) | %12
!p!!<(! (3(F2 x2 E2 (3G2!<)! x2!>(! F2 (3A2 x2!>)! D2) | F6 x2!<(! (D3 d)!<)! | %14
!f! (x4 (3_e2 x2 [Bd]2 (3c2 x2 B2) | A4- A4 =B4 | c4 A6 x2 | x4 G6 x2 | z4 (F4!mf! (3:2:2E4) z2 | %19
 z4 [G,G]6 x2 |[K:bass] z4 [F,F]8- | (([F,F]4 [E,E]4-))!p! [E,E]2 z2 | %22
 z2 [A,D]2 z2 [A,D]2 z2 [D,D]2 | z2!<(! (E,2!<)!!>(! F,2!>)!!mp! E,2) z2 E,2 | %24
 z2!<(! A,4!<)!!mp! A,2 z2 A,2 | z2 A,2 z2 D2 z2 [D,G,]2 | z2!<(! =C4!<)!!mf! C2 z2 D2 | %27
 z2!<(! _E4!<)!!mf! E2 z2 D2 | z2!<(! D4!<)!!mp! D2 z2 [B,D]2 | %29
 z2!<(! [B,D]4!<)!!p! [B,D]2 z2 [A,^C]2 | z2!<(! [A,D]2 z2!<)!!>(! [A,D]2 z2!>)! [D,D]2 | %31
 z2!<(! [A,D]2 z2!<)!!>(! [A,D]2 z2!>)! [D,D]2 | z2!<(! [A,D]2 z2 (A,2 B,2!<)! A,2) | %33
[K:treble]!<(! z2!<)!!>(! [A,A]2!>)! ([Bd-f-b]4 [Adfa]4-) | [Adfa]4 ([B,B]4 [A,A]4-) | %35
 [A,DFA]4 !fermata![A,FA]8 |] %36
V:3
!p! ([D,,,D,,]4 [E,,,E,,]2 [F,,,F,,]2 [G,,,G,,]2 [B,,,B,,]2) | ([A,,,A,,]8 [G,,,G,,]4 | %2
 [F,,,F,,]8 [E,,,E,,]4) | ([D,,,D,,]4 [E,,,E,,]2 [F,,,F,,]2 [G,,,G,,]2 [B,,,B,,]2) | %4
 ([_E,,_E,]8 [D,,D,]4 | [C,,C,]8 [B,,,B,,]4) | ([A,,,A,,]8"^dim." [_A,,,_A,,]4 | %7
 [G,,,G,,]8 [=A,,,=A,,]4) |!p! ([D,,,D,,]8 [E,,,E,,]4 | [F,,,F,,]8 [E,,,E,,]4) | %10
 [F,,,F,,]8 [A,,,A,,]4 | ([_D,,_D,]4 [C,,C,]4 [F,,,F,,]4) | ([_D,,_D,]4 [C,,C,]4 [F,,,F,,]4) | %13
 C,4 G,,4 A,,4 | [B,,,B,,]8 [G,,,G,,]4 | ([A,,,A,,]4 [D,,D,]4 [G,,,G,,]4) | [C,,C,]4 (E,4 _E,4) | %17
 [B,,,B,,]4 (D,4 _D,4) | [A,,,A,,]4 [A,,^C,]8 | [B,,,B,,]4 (D,4 _D,4) | %20
!mf! [A,,,A,,]4"^poco riten." [A,,^C,]8- | [A,,C,]8- [A,,C,]2 z2 | %22
!pp! ([D,,,D,,]4!<(! [E,,,E,,]2 [F,,,F,,]2 [G,,,G,,]2!<)!!mp! [B,,,B,,]2) | %23
 ([A,,,A,,]8 [G,,,G,,]4 | [F,,,F,,]8 [E,,,E,,]4) | %25
!mp!!<(! ([D,,,D,,]4 [E,,,E,,]2 [F,,,F,,]2 [G,,,G,,]2!<)!!mf! [B,,,B,,]2) | ([_E,,_E,]8 [D,,D,]4 | %27
 [C,,C,]8 [B,,,B,,]4) |"^dim." ([A,,,A,,]8 [_A,,,_A,,]4 | [G,,,G,,]8 [=A,,,=A,,]4) | %30
 ([D,,,D,,]8 [E,,,E,,]4 | [F,,,F,,]8 [E,,,E,,]4) | [D,,,D,,]12- | %33
 [D,,,D,,]2!f! [D,,,D,,]2 ([B,DF]2 [F,F]2 [D,D]2 [A,,A,]2 | %34
 [F,,F,]2 [E,,E,]2)!>(! (B,,2 F,,2 D,,2 A,,,2!>)! | F,,,2 E,,,2)!pp! !fermata![D,,,D,,]8 |] %36
V:4
 x12 |[K:bass] x2 ^C,4 C,2 x2 C,2 | x2 (D,2!>(! E,2!>)! D,2) x2 E,2 | x2 (F,2 G,2 A,2 B,2 D,2) | %4
 x2 (A,2!>(! B,2!>)! A,2) x2 A,2 | x2 (A,2!>(! B,2!>)! A,2) x2 G,2 | %6
 x2 (F,2!>(! G,2!>)! F,2) x2 F,2 | x2 (E,2!>(! F,2!>)! E,2) x2 F,2 | x2 (D,2 E,2 F,2 G,2 B,2) | %9
 x2 (D,2 E,2 F,2 G,2 B,2) | x12 |[K:treble] (3z2 (G,2 B,2) (3z2 (A,2 C2) (3z2 (A,2 C2) | %12
 (3z2 (G,2 B,2) (3z2 (A,2 C2) (3z2 (A,2 =B,2) | (3z2 (G,2 C2) (3z2 (G,2 C2) x4 | %14
 (3z2 (D2 G2) (3z2 (D2 G2) (3z2 (D2 G2) | %15
 (3z2 (A,2 [^CE]2) (3z2!<(! (A,2 [D^F]2) (3z2!<)! (=B,2 [D=F]2) | %16
 (3z2!<(! (C2 [FA]2)!<)! (3z2!>(! (C2 E2) (3z2 (C2!>)! _E2) | %17
 (3z2!<(! (B,2 D2) (3z2!<)!!>(! (B,2 D2) (3z2 (B,2!>)! _D2) | %18
 (3z2!>(! (A,2 ^C2) (3z2 (A,2 C2)!>)! (3z2 (A,2 C2) | %19
 (3z2!<(! (B,2 D2) (3z2!<)!!>(! (B,2 D2) (3z2 (B,2!>)! _D2) | %20
[K:bass] (3z2 (A,2 ^C2) (3z2 (A,2 C2)!>(! (3z2 (A,2 C2) | (3z2 (A,2 ^C2) (3z2 (A,2 C2)!>)! z4 | %22
 x2 (D,2 E,2 F,2 G,2 B,2) | x2 ^C,4 C,2 x2 C,2 | x2 (D,2!>(! E,2!>)! D,2) x2 E,2 | %25
 x2 (F,2 G,2 A,2 B,2 D2) | x2 (A,2!>(! B,2!>)! A,2) x2 A,2 | x2 (A,2!>(! B,2!>)! A,2) x2 G,2 | %28
 x2 (F,2!>(! G,2!>)! F,2) x2 F,2 | x2 (=E,2!>(! F,2!>)! E,2) x2 F,2 | x2 (D,2 E,2 F,2 G,2 B,2) | %31
 x2 (D,2 E,2 F,2 G,2 B,2) | x2 (D,2 E,2 D,2) z2 D2 |[K:treble] (E2 D2) x8 | x4 [DF]8- | x12 |] %36
V:5
 x12 |[K:bass] x12 | x12 | x12 | x12 | x12 | x12 | x12 | x12 | x12 | x12 |[K:treble] x12 | x12 | %13
 x20/3 (3:2:1E2 x4 | d6 x6 | x12 | x4 (3:2:1(x2 x16/3 (3:2:1G2) | x4 (x4- (3x2- x2 F2) | x12 | %19
 x4 (x4- (3x2- x2 [F,F]2) |[K:bass] x12 | x12 | x12 | x12 | x12 | x12 | x12 | x12 | x12 | x12 | %30
 x12 | x12 | x12 |[K:treble] x12 | x12 | x12 |] %36
V:6
 x12 | x12 | x12 | x12 | x12 | x12 | x12 | x12 | x12 | x12 | x12 | x12 | x12 | C,,8 C,,4 | x12 | %15
 x12 | x4 C,8 | x4 B,,8 | x12 | x4 B,,8 | x12 | x12 | x12 | x12 | x12 | x12 | x12 | x12 | x12 | %29
 x12 | x12 | x12 | x12 | x12 | x4 [D,,D,]2 z2 x4 | x12 |] %36
V:7
 x12 | x12 | x12 | x12 | x12 | x12 | x12 | x12 | x12 | x12 | x12 | x12 | x12 | %13
 x8 (3z2 (D,2 [^F,A,]2) | x12 | x12 | x12 | x12 | x12 | x12 | x12 | x12 | x12 | x12 | x12 | x12 | %26
 x12 | x12 | x12 | x12 | x12 | x12 | x12 | x12 | x12 | x12 |] %36

